X: 11031
T: Dualloa, The
R: reel
M: 4/4
K: Dmajor
|:FA|dBAG FADC|DEFD A,3A,|B,CDE FB,~B,2|A,B,DF E2FA|
dBAG FADC|DEFD A,3A,|B,CDE FAdB|AFEF D2:|
|:DE|FAdA fAdA|FAdB ADFA|BAGF EFGA|B2ec dcBA|
FAdA fAdA|FAdB ADFA|BAGF EFGB|AFEF D2:|

